X:463
T: AUF DEM KIRCHHOF
N: E0413B
O: Europa, Mitteleuropa, Deutschland
R: Liebes - Lied
M: 2/4
L: 1/16
K: A
E=F | =G2G2A2A2 | =G2AB=c2z2
E3=FG2BG | E2=C2z2
E2 | E2E2F2G2 | A3B=c2
cd | e2=cdecec | d6
AB | =c2ccB2c2 | A6

